dist/assets/images/logo.svg

<svg width="407" height="113" viewBox="0 0 407 113" fill="none" xmlns="http://www.w3.org/2000/svg">
<path d="M172.442 113.002H180.784V98.9947C180.784 94.7672 182.905 92.9212 186.015 92.9212C189.125 92.9212 191.26 94.725 191.26 98.9947V113.002H199.602V98.9947C199.602 89.8634 194.155 85.2695 186.015 85.2695C177.874 85.2695 172.442 89.9056 172.442 98.9947V113.002Z" fill="white"/>
<path d="M218.75 105.35C217.413 105.418 216.087 105.089 214.941 104.408C213.796 103.727 212.885 102.723 212.325 101.527C211.766 100.332 211.584 98.9984 211.804 97.7C212.023 96.4016 212.633 95.1977 213.555 94.2437C214.478 93.2898 215.67 92.6297 216.978 92.3488C218.285 92.0678 219.649 92.1789 220.892 92.6677C222.135 93.1564 223.2 94.0004 223.95 95.0906C224.7 96.1808 225.1 97.467 225.099 98.7832C225.166 99.6347 225.05 100.49 224.759 101.295C224.468 102.1 224.008 102.835 223.41 103.454C222.811 104.073 222.087 104.562 221.285 104.888C220.482 105.215 219.619 105.372 218.75 105.35ZM218.75 113.002C221.327 113.109 223.885 112.53 226.155 111.328C228.425 110.125 230.323 108.342 231.649 106.167C232.957 103.92 233.635 101.372 233.613 98.7832C233.613 90.5679 227.493 84.5508 218.808 84.5508C210.122 84.5508 203.945 90.5679 203.945 98.7832C203.945 106.999 210.065 113.002 218.75 113.002Z" fill="white"/>
<path d="M237.912 113.002H246.253V97.6278C246.253 94.0063 247.93 92.9212 250.266 92.9212C252.602 92.9212 254.279 94.0063 254.279 97.6278V97.8392H262.62V97.6842C262.62 89.1447 257.619 85.2695 250.266 85.2695C242.914 85.2695 237.912 89.2011 237.912 97.6278V113.002Z" fill="white"/>
<path d="M279.705 105.349C278.368 105.416 277.041 105.088 275.896 104.407C274.751 103.725 273.84 102.722 273.28 101.526C272.721 100.33 272.539 98.9971 272.758 97.6987C272.978 96.4003 273.588 95.1963 274.51 94.2424C275.432 93.2885 276.625 92.6284 277.932 92.3474C279.24 92.0665 280.604 92.1775 281.846 92.6663C283.089 93.1551 284.155 93.9991 284.905 95.0892C285.655 96.1794 286.055 97.4657 286.054 98.7819C286.121 99.6334 286.005 100.489 285.713 101.294C285.422 102.098 284.963 102.834 284.364 103.453C283.766 104.072 283.042 104.56 282.239 104.887C281.437 105.214 280.573 105.371 279.705 105.349ZM279.705 113C288.104 113 294.338 107.589 294.338 98.5001V73.4453H285.997V88.2132C285.102 87.0207 283.924 86.0627 282.564 85.4238C281.204 84.7848 279.706 84.4846 278.2 84.5494C271.966 84.5494 264.843 89.0305 264.843 98.4437C264.9 107.096 271.02 113 279.762 113H279.705Z" fill="white"/>
<path d="M311.648 113.001C313.429 113.079 315.204 112.727 316.815 111.975C318.426 111.223 319.826 110.095 320.892 108.689C321.952 110.1 323.351 111.233 324.963 111.985C326.576 112.737 328.353 113.086 330.136 113.001C336.815 113.001 341.931 109.182 341.931 100.473V85.2686H333.59V100.473C333.59 104.095 331.798 105.349 329.29 105.349C326.782 105.349 325.062 104.095 325.062 100.473V85.2686H316.735V100.473C316.735 104.095 314.944 105.349 312.436 105.349C309.928 105.349 308.136 104.095 308.136 100.473V85.2686H299.795V100.473C299.852 109.182 304.969 113.001 311.648 113.001Z" fill="white"/>
<path d="M355.117 95.8216C355.494 94.5837 356.292 93.5106 357.377 92.782C358.463 92.0535 359.77 91.7137 361.079 91.8196C362.403 91.7035 363.727 92.0375 364.831 92.7659C365.934 93.4943 366.75 94.5729 367.142 95.8216H355.117ZM361.079 112.943C367.93 112.943 373.161 109.223 374.938 103.642H366.339C365.279 105.052 363.473 105.615 361.108 105.615C359.688 105.737 358.272 105.333 357.138 104.484C356.004 103.634 355.232 102.4 354.974 101.021H375.741V98.7808C375.813 96.8771 375.481 94.9795 374.768 93.2085C374.054 91.4375 372.973 89.8319 371.594 88.4935C370.216 87.1551 368.569 86.1132 366.759 85.434C364.948 84.7549 363.014 84.4533 361.079 84.5484C352.394 84.5484 346.274 90.5655 346.274 98.7808C346.274 106.996 352.394 112.999 361.079 112.999V112.943Z" fill="white"/>
<path d="M376.272 113H386.018L391.522 103.7L397.039 113H407L397.598 99.1623L406.556 85.9727H396.81L391.751 94.5685L386.692 85.9727H376.717L385.631 99.1623L376.272 113Z" fill="white"/>
<path fill-rule="evenodd" clip-rule="evenodd" d="M95.8954 36.5114H127.884L92.2407 9.86432H59.7501L95.8954 36.5114ZM50.3483 15.3741V32.5658L89.188 61.5521V43.9517L50.3483 15.3741ZM138.103 46.3755H99.2634V69.0488L138.103 98.035V46.3755ZM10.0324 76.0945L40.2729 98.1759V37.4837L10.0324 14.9373V76.0945ZM50.3053 103.136H89.145V73.9949L50.3483 44.9945L50.3053 103.136ZM40.2729 25.0832V4.96046C40.271 4.30856 40.4002 3.66271 40.6531 3.06007C40.9059 2.45743 41.2775 1.90988 41.7463 1.44891C42.2151 0.987943 42.772 0.622647 43.385 0.374032C43.9979 0.125416 44.6548 -0.0016143 45.3178 0.000245647H93.9463C95.0454 -0.00199463 96.1142 0.354896 96.9846 1.01484L146.186 37.7374C146.805 38.1997 147.307 38.7964 147.652 39.4808C147.998 40.1652 148.178 40.9189 148.179 41.683V108.054C148.181 108.977 147.921 109.883 147.427 110.669C146.934 111.454 146.226 112.088 145.385 112.499C144.544 112.909 143.602 113.08 142.668 112.992C141.733 112.904 140.842 112.56 140.095 112L99.2634 81.5198V108.054C99.2634 108.705 99.1328 109.349 98.8791 109.95C98.6254 110.551 98.2536 111.097 97.7849 111.557C97.3163 112.016 96.76 112.38 96.148 112.628C95.5361 112.876 94.8804 113.002 94.2185 113H45.3178C44.2341 113.004 43.1781 112.663 42.3081 112.028L41.0755 111.126H40.2729V110.534L2.03516 82.5203C1.40217 82.0618 0.888014 81.463 0.534416 80.7726C0.180818 80.0821 -0.00226525 79.3195 2.11544e-05 78.5464V4.96046C-0.00270061 4.03709 0.25752 3.1314 0.75123 2.34592C1.24494 1.56043 1.95242 0.926512 2.7936 0.515913C3.63478 0.105314 4.57606 -0.0655697 5.5109 0.0226051C6.44575 0.11078 7.33682 0.454491 8.08327 1.01484L40.2729 25.0832Z" fill="white"/>
</svg>

<svg width="407" height="113" fill="none" xmlns="http://www.w3.org/2000/svg"><path d="M172.442 113.002h8.342V98.995c0-4.228 2.121-6.074 5.231-6.074s5.245 1.804 5.245 6.074v14.007h8.342V98.995c0-9.132-5.447-13.726-13.587-13.726-8.141 0-13.573 4.637-13.573 13.726v14.007zm46.308-7.652a6.784 6.784 0 01-3.809-.942 6.624 6.624 0 01-2.616-2.881 6.475 6.475 0 01-.521-3.827 6.54 6.54 0 011.751-3.456 6.727 6.727 0 013.423-1.895 6.8 6.8 0 013.914.319 6.67 6.67 0 013.058 2.423 6.504 6.504 0 011.149 3.692 6 6 0 01-.34 2.512 6.086 6.086 0 01-1.349 2.159 6.213 6.213 0 01-2.125 1.434 6.298 6.298 0 01-2.535.462zm0 7.652a14.542 14.542 0 007.405-1.674 14.234 14.234 0 005.494-5.161 14.429 14.429 0 001.964-7.384c0-8.215-6.12-14.232-14.805-14.232-8.686 0-14.863 6.017-14.863 14.232 0 8.216 6.12 14.219 14.805 14.219zm19.162 0h8.341V97.628c0-3.622 1.677-4.707 4.013-4.707s4.013 1.085 4.013 4.707v.211h8.341v-.155c0-8.54-5.001-12.415-12.354-12.415-7.352 0-12.354 3.932-12.354 12.359v15.374zm41.793-7.653a6.79 6.79 0 01-3.809-.942 6.629 6.629 0 01-2.616-2.881 6.485 6.485 0 01-.522-3.827 6.548 6.548 0 011.752-3.457 6.725 6.725 0 013.422-1.895 6.799 6.799 0 013.914.32 6.675 6.675 0 013.059 2.422 6.504 6.504 0 011.149 3.693 5.986 5.986 0 01-.341 2.512 6.081 6.081 0 01-1.349 2.159 6.208 6.208 0 01-2.125 1.434 6.293 6.293 0 01-2.534.462zm0 7.651c8.399 0 14.633-5.411 14.633-14.5V73.445h-8.341v14.768a9.158 9.158 0 00-3.433-2.79 9.321 9.321 0 00-4.364-.874c-6.234 0-13.357 4.481-13.357 13.895.057 8.652 6.177 14.556 14.919 14.556h-.057zm31.943.001a11.077 11.077 0 005.167-1.026 10.897 10.897 0 004.077-3.286 10.801 10.801 0 004.071 3.296 11.007 11.007 0 005.173 1.016c6.679 0 11.795-3.819 11.795-12.528V85.269h-8.341v15.204c0 3.622-1.792 4.876-4.3 4.876s-4.228-1.254-4.228-4.876V85.269h-8.327v15.204c0 3.622-1.791 4.876-4.299 4.876-2.508 0-4.3-1.254-4.3-4.876V85.269h-8.341v15.204c.057 8.709 5.174 12.528 11.853 12.528zm43.469-17.179a5.647 5.647 0 012.26-3.04 5.809 5.809 0 013.702-.962 5.883 5.883 0 013.752.946 5.72 5.72 0 012.311 3.056h-12.025zm5.962 17.121c6.851 0 12.082-3.72 13.859-9.301h-8.599c-1.06 1.41-2.866 1.973-5.231 1.973a5.801 5.801 0 01-3.97-1.131 5.624 5.624 0 01-2.164-3.463h20.767v-2.24a13.546 13.546 0 00-.973-5.573 13.724 13.724 0 00-3.174-4.715 13.995 13.995 0 00-4.835-3.059 14.196 14.196 0 00-5.68-.886c-8.685 0-14.805 6.017-14.805 14.233 0 8.215 6.12 14.218 14.805 14.218v-.056zm15.193.057h9.746l5.504-9.3 5.517 9.3H407l-9.402-13.838 8.958-13.19h-9.746l-5.059 8.597-5.059-8.596h-9.975l8.914 13.19L376.272 113z" fill="#fff"/><path fill-rule="evenodd" clip-rule="evenodd" d="M95.895 36.511h31.989L92.241 9.864H59.75l36.144 26.647zM50.348 15.374v17.192l38.84 28.986v-17.6l-38.84-28.578zm87.755 31.002h-38.84v22.673l38.84 28.986v-51.66zM10.033 76.094l30.24 22.082V37.484l-30.24-22.547v61.157zm40.272 27.042h38.84V73.995l-38.797-29-.043 58.141zM40.273 25.083V4.96a4.873 4.873 0 01.38-1.9 4.94 4.94 0 011.093-1.611A5.036 5.036 0 0143.385.374 5.105 5.105 0 0145.318 0h48.628a5.014 5.014 0 013.039 1.015l49.201 36.722a4.97 4.97 0 011.466 1.744c.346.684.526 1.438.527 2.202v66.371a4.893 4.893 0 01-.752 2.615 5.002 5.002 0 01-2.042 1.83 5.112 5.112 0 01-5.29-.499L99.263 81.52v26.534c0 .651-.13 1.295-.384 1.896a4.95 4.95 0 01-1.094 1.607 5.048 5.048 0 01-1.637 1.071 5.096 5.096 0 01-1.93.372h-48.9a5.075 5.075 0 01-3.01-.972l-1.233-.902h-.802v-.592L2.035 82.52a4.94 4.94 0 01-1.5-1.747A4.85 4.85 0 010 78.546V4.96a4.884 4.884 0 01.751-2.614A5 5 0 012.794.516a5.105 5.105 0 015.29.499l32.189 24.068z" fill="#fff"/></svg>
